!!!!SEGMENT: Res3004-Le_bergier_et_la_bergere.krn
!!!id: Res3004
!!!AGN: Chanson
!!!voices: 3
!!!COM: Nicole Regnes
!!!OTL: Le bergier et la bergere
**kern	**kern	**kern
*part3	*part2	*part1
*staff3	*staff2	*staff1
*I"Bassus	*I"Tenor	*I"Superius
*I'B	*I'T	*I'S
*clefGv2	*clefG2	*clefG2
*k[]	*k[]	*k[]
*C:	*C:	*C:
*M2/1	*M2/1	*M2/1
*met(C|)	*met(C|)	*met(C|)
=1	=1	=1
0r	2r	2d
.	2d	2d
.	2d	2f
.	2f	2d
=2	=2	=2
0r	2d	2.f
.	2.f	.
.	.	4g
.	.	2a
.	4g	.
.	2a	2d
=3	=3	=3
2d	4d	2dd
.	4e	.
2d	4f	2dd
.	4g	.
2f	4a	2cc
.	4d	.
2d	4dd	[2b
.	4dd	.
=4	=4	=4
2f	2cc	2b]
2f	2a	1a
1e	2b	.
.	2b	2g#i
=5	=5	=5
2A	2a	1a
4d	4f	.
4d	4f	.
2c	2e	2r
2d	2a	[2dd
=6	=6	=6
2B	2a	2dd]
2B	2g	2dd
2A	2a	2cc
4f	4f	2a
4f	4a	.
=7	=7	=7
2e	2g	2b
2d	2f	2b
2c	4e	2a
.	4d	.
2B	[2dd	4g
.	.	4g
=8	=8	=8
1A	2dd]	4f
.	.	4d
.	2cc#i	4e
.	.	4e
2r	[1dd	1d
2G	.	.
=9	=9	=9
2G	1dd]	1r
2B	.	.
2G	2r	2d
4B	2d	2d
4c	.	.
=10	=10	=10
2d	2d	2f
2d	2f	2d
2r	2d	4f
.	.	4g
2d	4f	2a
.	4g	.
=11	=11	=11
2d	2a	2d
2f	2d	2r
2d	2r	2a
[2f	2a	2a
=12	=12	=12
2f]	2a	2cc
2f	2cc	2a
1f	2a	2.cc
.	[2cc	.
.	.	4dd
=13	=13	=13
1e	4cc]	2ee
.	4dd	.
.	2ee	2a
4d	2a	4dd
4d	.	4dd
4f	4a	4cc
4f	4a	4a
=14	=14	=14
4e	4g	4b
4e	4g	4b
2A	4a	2a
.	4f	.
4A	2e	4a
4A	.	4a
4c	4e	4g
4c	4e	4g
=15	=15	=15
4F	4a	4a
4F	4a	4f
2c	4g	2.e
.	4g	.
4c	4a	.
4B	4g	4d
4c	4a	4e
4d	4b	4f
=16	=16	=16
2e	2cc	4g
.	.	4e
2f	4b	1a
.	4a	.
1e	1b	.
.	.	2g#i
=17	=17	=17
0A	0a	1a
.	.	2r
.	.	2a
=18	=18	=18
2r	2r	2a
2d	2f	2a
2d	2f	4b-i
.	.	4a
2d	2f	4g
.	.	4f
=19	=19	=19
1.c	4e	4g
.	4d	4f
.	4e	4e
.	4f	4d
.	2g	2e
2F	2a	[2f
=20	=20	=20
2A	4a	4f]
.	4g	4e
2A	1cc	4d
.	.	4c
1G	.	2d
.	2b	2d
=21	=21	=21
2r	2cc	4c
.	.	4d
1c	4c	4e
.	4d	4f
.	4e	4g
.	4f	4a
2B	4g	4b
.	4e	4g
=22	=22	=22
1A	4f	4a
.	4e	4g
.	4d	1cc
.	4c	.
1G	1d	.
.	.	2b
=23	=23	=23
2r	1c	0cc
2c	.	.
2f	2r	.
2e	2c	.
=24	=24	=24
2.d	2.f	2r
.	.	2a
8cL	4g	.
8BJ	.	.
2A	2a	2cc
2B	[2g	2b
=25	=25	=25
2c	2g]	2a
2d	1f	4g
.	.	4f
2c	.	1g
2c	2e	.
=26	=26	=26
2.f	1f	2f
.	.	4r
4e	.	4c
2.d	2r	2.f
.	2a	.
8cL	.	4g
8BJ	.	.
=27	=27	=27
2.A	2cc	2a
.	2b	1g
4B	.	.
2c	2.a	.
2d	.	[2f
.	4f	.
=28	=28	=28
1c	1g	2f]
.	.	2e
2F	1f	1f
2f	.	.
=29	=29	=29
1f	2r	2r
.	2a	2cc
2r	1a	1cc
2f	.	.
=30	=30	=30
1f	2r	2r
.	2cc	2a
2r	1cc	1a
2f	.	.
=31	=31	=31
4f	2r	2r
4f	.	.
4f	2a	2cc
4f	.	.
4f	4a	4cc
4f	4a	4cc
4f	4a	4cc
4f	4a	4cc
=32	=32	=32
4f	4a	4cc
4f	4a	4cc
4d	4b	4dd
4d	4a	4cc
4e	4g	4b
4A	4a	4cc
4c	4a	4cc
4c	4g	4b
=33	=33	=33
2d	2f	2a
2c	2g	2cc
2B	2g	2dd
2A	2a	2cc
=34	=34	=34
2d	2f	4b
.	.	4a
4c	4e	1dd
4B	4d	.
1A	1e	.
.	.	2cc#i
=35	=35	=35
2r	1d	1dd
2f	.	.
1f	2r	2r
.	2a	2cc
=36	=36	=36
2r	1a	1cc
2f	.	.
1f	2r	2r
.	2cc	2a
=37	=37	=37
2r	1cc	1a
2f	.	.
4f	2r	2r
4f	.	.
4f	2a	2cc
4f	.	.
=38	=38	=38
4f	4a	4cc
4f	4a	4cc
4f	4a	4cc
4f	4a	4cc
4f	4a	4cc
4f	4a	4cc
4d	4b	4dd
4d	4a	4cc
=39	=39	=39
4e	4g	4b
4A	4a	4cc
4c	4a	4cc
4c	4g	4b
2d	2f	2a
2c	2g	2cc
=40	=40	=40
2B	2g	2dd
2A	2a	2cc
2.d	2f	2b
.	4e	4a
8cL	4d	4b
8BJ	.	.
=41	=41	=41
2A	2f	4cc
.	.	4a
2G	2g	1dd
1A	1e	.
.	.	2cc#i
=42	=42	=42
00dl	00dl	00ddl
==	==	==
*-	*-	*-
!!!system-decoration: [*]
!!!RDF**kern: i = editorial accidental
!!!RDF**kern: l = terminal long
!!!ENC: Benjamin Ory
!!!END: 2025/2/24
!!!EED: Benjamin Ory
!!!EEV: 2025/02/24
!!!YEC: Copyright 2025 Benjamin Ory, All Rights Reserved
!!!ONB: Translated from MusicXML on 2025/02/24